X:1
T:Still Loving You Scorpions 
T: arrangement  Elisabeth  Guinet
T: arrangement  Elisabeth  Guinet
T: arrangement  Elisabeth  Guinet
T: arrangement  Elisabeth  Guinet
Z:arrangement  Elisabeth  Guinet
%%score 1 { 2 | ( 3 4 ) }
L:1/8
Q:1/4=100
M:4/4
K:Bb
V:1 treble nm="Oboe"
V:2 treble nm="Piano"
V:3 bass 
V:4 bass 
V:1
 z8 | z8 | z8 | z8 | z8 | z8 | z8 | z8 | z8 |: D4 z2 z C/B,/ | D2 z2 z2 z D | B>B- BB A/B/ A2 G | %12
w: |||||||||Time, it needs|time to|win back * your lo- * ve a-|
w: |||||||||Love, on- ly|love can|bring back * your lo- * ve some-|
 D2 z2 D>C- CB, | ^C4 z4 | z4 ^C>=B,- B,A, ||1 D4 z4 | z8 :|2 D4 z4 || z8 | z8 | z8 | z8 | z8 | %23
w: gain I will * be|there|I will * be|there||there||||||
w: day I will * be|there|I will * be|||||||||
 z8 | z8 | z8 | z8 | z8 |: D4 z2 (3z CB, | D4 z2 z D | (3B2 B2 B2 A/B/ A2 G | D2 z2 D>C- CB, | %32
w: |||||Fight, babe, I'll|fight to|win back your lo- * ve a-|gain I will * be|
w: |||||Love, on- ly|love can|break down the walls- * * some-|day I will * be|
 ^C4 z4 | z4 ^C>=B,- B,A, ||1 D4 z4 | z8 :|2 D4 z4 || z8 | z4 G2 G2 | B2 AG- G4 | F2 FF- FDB,C- | %41
w: there|I will * be|there||there||If we'd|go a- gain *|all the way * from the start|
w: there|I will * be||||||||
 C4 z4 | z4 G2 G2 | B2 AG- G3 B, | F2 FF- FDB,C- | C4 z4 | z2 z G, D D3 | E2 DC- C2 z G | %48
w: |I would|try to change * the|things that killed * our- * love||Your pride as|built a wall * so|
w: |||||||
 A2 z D/D/ D A2 B- | B4 z G2 A | (3B2 A2 G2 E4- | E4 z2 z E | (3B2 A2 G2 A4 | z2 z D D D3 | D4 z4 | %55
w: strong that I can't get throug|* Is there|rea- ly no chance|* to|start once a- gain?|I'm lo- ving|you|
w: |||||||
 z8 | z8 | z8 | z8 | z8 | z8 | z8 | z8 | D4 z2 z C/B,/ | D2 z2 z2 z D | B>B- BB A/B/ A2 G | %66
w: ||||||||Try, ba- by,|try to|trust in * my lo- * ve a-|
w: |||||||||||
 D2 z2 D>C- CB, | ^C4 z4 | z4 ^C>=B,- B,A, | D4 z4 | z8 | B4 z2 z B | B4 z2 z D | %73
w: gain I will * be|there|I will * be|there||Love, our|love just|
w: |||||||
 (3B2 B2 B2 A/B/ A2 G | G2 z2 D>C- CB, | ^C4 z4 | z4 ^C>=B,- B,A, | D4 z4 | z8 | z4 G2 G2 | %80
w: should- nt be thrown * * a-|way I will * be|there|I will * be|there||If we'd|
w: |||||||
 B2 AG- G4 | F2 FF- FDB,C- | C4 z4 | z4 G2 G2 | B2 AG- G3 B, | F2 FF- FDB,C- | C4 z4 | %87
w: go a- gain *|all the way * from the start||I would|try to change * the|things that killed * our- * love||
w: |||||||
 z2 z G, D D3 | E2 DC- C2 z G | A2 z D/D/ D A2 B- | B4 z G2 A | (3B2 A2 G2 E4- | E4 z2 z E | %93
w: Your pride as|built a wall * so|strong that I can't get throug|* Is there|rea- ly no chance|* to|
w: ||||||
 (3B2 A2 G2 A4 | z8 | z4 G2 G2 | B2 AG- G4 | F2 FF- FDB,C- | C4 z4 | z4 G2 G2 | B2 AG- G3 B, | %101
w: start once a- gain?||If we'd|go a- gain *|all the way * from the start||I would|try to change * the|
w: ||||||||
 F2 FF- FDB,C- | C4 z4 | z4 D D2 E- | E2 DC- C2 z G/G/ | A2 z D d c2 B- | B4 z G2 A | %107
w: things that killed * our- * love||Yes, I've hurt|* your pride * and I|know what you've been through|* You should|
w: ||||||
 (3B2 A2 G2 E4- | E2 z2 z2 z E | (3B2 A2 G2 A4 | z2 z D B B2 A |: B/A/ G3- G3 ^F | G8 | z8 | %114
w: give me a chance|* This|can't be the end|I'm still lo- ving|you _ _ _ _|_||
w: |||||||
 z2 z D B B2 A | B/A/ G3- G3 ^F | G8 | z8 | z2 z D B B2"^reprise ad libitum" A :| A/G/ G3- G4 | %120
w: I'm still lo- ving|you _ _ _ _|_||I'm still lo- ving|you _ _ _|
w: ||||||
 z8 |] %121
w: |
w: |
V:2
 z BGD z BGD | z BGD{/c} _dcBG | z2 BG D2 B,2 | z2 A^F C2 A,2 | z BGD z BGD | z BGD{/c} _dcBG | %6
 z2 BG D2 B,2 | z2 A-[^FA]- [FA]4- |{/^C} [DFA]8 |: DBGD BGDB | DBGD BGDB | DBGD BGDB | DBGD BGDB | %13
 =E^cAE cAEc | ^C^cA=E cAEA ||1 A,^FDA, FDA,F | A,^FDA, FDA,F :|2 A,^FDA, FDFG || ^F8 | %19
 z BGD z BGD | z BGD _dcBG | z2 BG D2 z2 | z2 A^F- F{/^C} [DF]3 | G3 A/B/ c3 B/A/ | B3 G/B/ f g3- | %25
 g4 _d>c- (3cBG | c2- [Ac]-[^FAc]- [FAc]4- |{/^C} [DFAc]8 |: DBGD BGDB | DBGD BGDB | DBGD BGDB | %31
 DBGD BGDB | =E^cAE cAEc | ^C^cA=E cAEA ||1 A,^FDA, FDA,F | A,^FDA, FDA,F :|2 A,^FDA, FDFG || %37
 [A,^F]3 [A,F] [A,F][A,F][A,F][A,F] | !arpeggio![G,B,DG]8 | !arpeggio![G,B,EG]8 | %40
 !arpeggio![F,B,DF]8 | !arpeggio![F,A,CF]8 | !arpeggio![G,B,DG]8 | !arpeggio![G,B,EG]8 | %44
 !arpeggio![F,B,B,DF]8 | [A,F][A,F] z [A,F] z D [A,F]2 | !arpeggio![G,B,DG]6 [G,B,DG]2 | %47
 !arpeggio![CEGc]6 [CEGc]2 | !arpeggio![D^FAd]6 [DFAd]2 | !arpeggio![DGBd]8 | %50
 !arpeggio![EGBe]3[K:bass] D, E,3 D, | E,D,E,D, E,2 z2 | %52
[K:treble] !arpeggio![FAcf]3[K:bass] =E, F,3 E, | F,8 |[K:treble] z BGD z BGD | z BGD{/c} _dcBG | %56
 z2 BG D2 B,2 | z2 A-[^FA]- [CFA]4 | G3 A/B/ c3 B/A/ | B2- (3BGB f g3- | g4 _d>c- (3cBG | %61
 c2- [Ac]-[^FAc]- [FAc]4- |{/^C} [DFAc]8 | DBGD BGDB | DBGD BGDB | DBGD BGDB | DBGD BGDB | %67
 =E^cAE cAEc | ^C^cA=E cAEA | A,^FDA, FDA,F | A,^FDA, FDA,F | DBGD BGDB | DBGD BGDB | DBGD BGDB | %74
 DBGD BGDB | =E^cAE cAEc | ^C^cA=E cAEA | A,^FDA, FDA,G | [A,^F]3 [A,F] [A,F][A,F][A,F][A,F] | %79
 !arpeggio![G,B,DG]4 z2 [B,DG]G, | !arpeggio![G,B,EG]4 z G,[B,EG]G, | %81
 !arpeggio![F,B,DF]4 z2 [B,DF]F, | !arpeggio![F,A,CF]4 z F,[A,CF]F, | %83
 !arpeggio![G,B,DG]4 z2 [B,DG]G, | !arpeggio![G,B,EG]4 z G,[B,EG]G, | %85
 !arpeggio![F,B,DF]4 z2 [B,DF]F, | [A,F][A,F] z [A,F] z D [A,F]2 | %87
 !arpeggio![G,B,DG]4 z2 [B,DG]G, | !arpeggio![CEGc]4 z C[EGc]C | !arpeggio![D^FAd]4 z2 [FAd]D | %90
 !arpeggio![DGBd]8 | !arpeggio![EGBe]3[K:bass] D, E,3 D, | E,D,E,D, E,2 z2 | %93
[K:treble] !arpeggio![FAcf]3[K:bass] =E, F,3 E, | F,2[K:treble] z [A,F] [A,F][A,F][A,F][A,F] | %95
 !arpeggio![G,B,DG]4 z2 [B,DG]G, | !arpeggio![G,B,EG]4 z G,[B,EG]G, | %97
 !arpeggio![F,B,DF]4 z2 [B,DF]F, | !arpeggio![F,A,CF]4 z F,[A,CF]F, | %99
 !arpeggio![G,B,DG]4 z2 [B,DG]G, | !arpeggio![G,B,EG]4 z G,[B,EG]G, | %101
 !arpeggio![F,B,DF]4 z2 [B,DF]F, | [A,F][A,F] z [A,F] z D [A,F]2 | [B,G][A,F][B,G] z z2 [DGB]2 | %104
 !arpeggio![CEGc]4 z2 [CEGG]2 | [DA][CG][DA] z z2 [D^FAd]2 | !arpeggio![DGBd]8 | %107
 !arpeggio![EGBe]3[K:bass] D, E,3 D, | E,D,E,D, E,2 z2 | %109
[K:treble] !arpeggio![FAcf]3[K:bass] =E, F,3 E, | F,8 |: %111
[K:treble] !arpeggio![G,B,DG]4 z G,[B,DG]G, | !arpeggio![G,B,EG]4 z G,[B,EG]G | %113
 !arpeggio![F,B,DF]2 G F2 D B,C- | !arpeggio![C,F,A,C]4 z2 [A,CF]F, | %115
 !arpeggio![G,B,DG]4 z G,[B,DG]G, | !arpeggio![G,B,EG]3 ^F GABc | !arpeggio![DFBd]2 d d2 c2 B | %118
 !arpeggio![CFAc]4 z2 [A,CF]F, :| !arpeggio![G,B,DG]4 z G,[B,DG]G, | !arpeggio![G,B,DG]8 |] %121
V:3
 D,4 F,4 | E,8 | E,8 | D,8 | D,4 F,4 | E,8 | E,8 | D,8- | D,8 |: G,,G,D,G,, G,D,G,,G, | %10
 G,,G,D,G,, G,D,G,,G, | G,,G,D,G,, G,D,G,,G, | G,,G,D,G,, G,D,G,,G, | A,,A,=E,A,, A,E,A,,A, | %14
 A,,A,=E,A,, A,E,A,,E, ||1 D,,D,A,,D,, D,A,,D,,D, | D,,D,A,,D,, D,A,,D,,D, :|2 %17
 D,,D,A,,D,, D,A,,D,,D, || D,,8 | G,3 A,/B,/ C3 B,/A,/ | B,3 A,/G,/ A,/B,A,/- A,2 | %21
 z2 z G, A,B,CB, | C4 C4 | z B,G,D, z B,G,D, | z B,G,D, _DCB,G, | E,2 B,G, D,2 B,,2 | %26
 A,2 C[A,-A,] [A,C]4- | [A,C]8 |: !>!G,,G,D,G,, !>!G,D,G,!>!G,, | !>!G,,G,D,G,, !>!G,D,G,!>!G,, | %30
 !>!G,,G,D,G,, !>!G,D,G,!>!G,, | !>!G,,G,D,G,, !>!G,D,G,!>!G,, | !>!A,,A,=E,A,, !>!A,E,A,!>!A,, | %33
 !>!A,,A,=E,A,, !>!A,E,A,!>!A,, ||1 !>!D,,D,A,,D,, !>!D,A,,D,!>!D,, | %35
 !>!D,,D,A,,D,, !>!D,A,,D,!>!D,, :|2 !>!D,,D,A,,D,, !>!D,A,,D,!>!D,, || D,,3 D,, D,,D,,D,,D,, | %38
 G,,,2 G,,2 G,,,2 G,,,2 | E,,,2 E,,2 E,,,2 E,,,2 | B,,,2 B,,2 B,,,2 B,,,2 | %41
 F,,,2 F,,2 F,,,2 F,,[F,,,F,,] | G,,,2 G,,2 G,,,2 G,,,2 | E,,,2 E,,2 E,,,2 E,,,2 | %44
 B,,,2 B,,2 B,,,2 B,,,2 | [F,,,F,,][F,,,F,,] z [F,,,F,,] z D,, [F,,,F,,]2 | %46
 G,,,2 G,,,2 G,,,2 G,,,2 | C,,2 C,,2 C,,2 C,,2 | D,,2 D,,2 D,,2 D,,2 | G,,,2 G,,,2 F,,,2 F,,,2 | %50
 E,,,2 E,,,2 E,,,2 E,,,2 | E,,,2 E,,,2 E,,,2 E,,,2 | F,,,2 F,,,2 F,,,2 F,,,2 | F,,,8 | D,4 F,4 | %55
 E,8 | E,8 | D,8 | z B,G,D, z B,G,D, | z B,G,D, _DCB,G, | E,2 B,G, D,2 B,,2 | %61
 A,2 C[A,-A,] [A,C]4- | [A,C]8 | !>!G,,G,D,G, !>!G,,G,D,!>!G,, | !>!G,,G,D,G, !>!G,,G,D,!>!G,, | %65
 !>!G,,G,D,G, !>!G,,G,D,!>!G,, | !>!G,,G,D,G, !>!G,,G,D,!>!G,, | !>!A,,A,=E,A, !>!A,,A,E,!>!A,, | %68
 !>!A,,A,=E,A, !>!A,,E,^C,!>!A,, | !>!D,,D,A,,D, !>!D,,D,A,,!>!D,, | %70
 !>!D,,D,A,,D, !>!D,,D,A,,!>!D,, | !>!G,,G,D,G, !>!G,,G,D,!>!G,, | !>!G,,G,D,G, !>!G,,G,D,!>!G,, | %73
 !>!G,,G,D,G, !>!G,,G,D,!>!G,, | !>!G,,G,D,G, !>!G,,G,D,!>!G,, | !>!A,,A,=E,A, !>!A,,A,E,!>!A,, | %76
 !>!A,,A,=E,A, !>!A,,E,^C,!>!A,, | !>!D,,D,A,,D, !>!D,,D,A,,!>!D,, | %78
 D,,3 [D,,D,] [D,,D,][D,,D,][D,,D,][D,,D,] | G,,,2 G,,,2 G,,,2 G,,,2 | E,,,2 E,,,2 E,,,2 E,,,2 | %81
 B,,,2 B,,,2 B,,,2 B,,,2 | F,,,2 F,,,2 F,,,2 F,,,2 | G,,,2 G,,,2 G,,,2 G,,,2 | %84
 E,,,2 E,,,2 E,,,2 E,,,2 | B,,,2 B,,,2 B,,,2 B,,,2 | %86
 [F,,,F,,][F,,,F,,] z [F,,,F,,] z D,, [F,,,F,,]2 | G,,,2 G,,,2 G,,,G,,G,,,G,, | %88
 C,,2 C,,2 C,,C,C,,C, | D,,2 D,,2 D,,D,D,,D, | G,,,2 G,,,2 F,,,2 F,,,2 | E,,,2 E,,,2 E,,,2 E,,,2 | %92
 E,,,2 E,,,2 E,,,2 E,,,2 | F,,,2 F,,,2 F,,,2 F,,,2 | %94
 [F,,,F,,][F,,,F,,] z [F,,,F,,] [F,,,F,,][F,,,F,,][F,,,F,,][F,,,F,,] | G,,,2 G,,,2 G,,,2 G,,,2 | %96
 E,,,2 E,,,2 E,,,2 E,,,2 | B,,,2 B,,,2 B,,,2 B,,,2 | F,,,2 F,,,2 F,,,F,,,F,,,F,,, | %99
 G,,,2 G,,,2 G,,,2 G,,,2 | E,,,2 E,,,2 E,,,2 E,,,2 | B,,,2 B,,,2 B,,,2 B,,,2 | %102
 [F,,,F,,][F,,,F,,] z [F,,,F,,] z D,, [F,,,F,,]2 | %103
 [G,,,G,,][F,,,F,,][G,,,G,,] z z [G,,,G,,]2 C,,- | C,,2 C,,2 C,,2 C,,2 | %105
 [D,,D,][C,,C,][D,,D,] z z [D,,D,]2 G,,,- | G,,,2 G,,,2 F,,,2 F,,,2 | E,,,2 E,,,2 E,,,2 E,,,2 | %108
 E,,,2 E,,,2 E,,,2 E,,,2 | F,,,2 F,,,2 F,,,2 F,,,2 | F,,,8 |: G,,,2 G,,,2 G,,,2 G,,,2 | %112
 E,,,2 E,,,2 E,,,2 E,,,2 | B,,,2 B,,,2 B,,,2 B,,,2 | F,,,2 F,,,2 F,,,2 F,,,2 | %115
 G,,,2 G,,,2 G,,,2 G,,,2 | E,,,2 E,,,2 E,,,2 E,,,2 | B,,,2 B,,,2 B,,,2 B,,,2 | %118
 F,,,2 F,,,2 F,,,2 F,,,2 :| G,,,2 G,,,2 G,,,4 | G,,,8 |] %121
V:4
 x8 | x8 | x8 | x8 | z DB,G, z DB,G, | z DB,G,- G,EDB, | z2 DB, G,2 E,2 | A,2 CA,- [A,C]4- | %8
 [A,C]8 |: x8 | x8 | x8 | x8 | x8 | x8 ||1 x8 | x8 :|2 x8 || x8 | D,4 F,4 | E,8 | E,8 | D,8 | %23
 D,4 F,4 | E,8 | E,8 | D,8- | D,8 |: x8 | x8 | x8 | x8 | x8 | x8 ||1 x8 | x8 :|2 x8 || x8 | G,,8 | %39
 E,,8 | B,,8 | F,,8 | G,,8 | E,,8 | B,,8 | x8 | G,,8 | C,8 | D,8 | G,,8 | E,,8 | E,,8 | F,,8- | %53
 F,,8 | z DB,G, z DB,G, | z DB,G,- G,EDB, | z2 DB, G,2 E,2 | A,2 CA,- A,4 | D,4 F,4 | E,8 | E,8 | %61
 D,8- | D,8 | x8 | x8 | x8 | x8 | x8 | x8 | x8 | x8 | x8 | x8 | x8 | x8 | x8 | x8 | x8 | x8 | %79
 G,,8 | E,,8 | B,,8 | F,,6- F,,F,, | G,,8 | E,,8 | B,,8 | x8 | G,,8 | C,8 | D,8 | G,,8 | %91
 E,,6- E,,E,,- | E,,6- E,,E,, | F,,6- F,,F,, | x8 | G,,6- G,,G,, | E,,6- E,,E,, | B,,6- B,,B,, | %98
 F,,8 | G,,6- G,,G,, | E,,6- E,,E,, | B,,6- B,,B,, | x8 | x7 C,- | C,6- C,C, | x7 G,,- | G,,8 | %107
 E,,6- E,,E,,- | E,,6- E,,E,, | F,,6- F,,F,,- | F,,8 |: G,,6- G,,G,, | E,,6- E,,E,, | %113
 B,,6- B,,B,, | F,,6- F,,F,, | G,,6- G,,G,, | E,,6- E,,E,, | B,,6- B,,B,, | F,,6- F,,F,, :| %119
 G,,6- G,,G,,- | G,,8 |] %121

